X:55
T: DORT UNTEN IM THAELE
N: E1053A
O: Europa, Mitteleuropa, Deutschland
R: Tanz - Lied
M: 3/4
L: 1/8
K: F
C2 | A3AA2 | B2B2
E2 | B3BB2 | c2c2
F2 | c2c2f2 | d2g3
f | e2d2cE | F2z2
c2 | d2b3d | c2ac
f2 | B2gBe2 | A2fA
c2 | d2b3d | c2ac
f2 | B2gce2 | f2z2

